**harmony	**harte	**kern	**silbe	**rhyme	**timestamp	**phrase
*M4/4	*M4/4	*ICvox	*	*	*	*
*	*	*VRlead	*	*	*	*
*	*	*Hstimme	*	*	*	*
*A:	*A:	*A:	*	*	*	*
*	*	*M4/4	*	*	*	*
*	*	*clefF4	*	*	*	*
1r;	1r	r;	.	.	0	.
=1	=1	=1	=1	=1	=1	=1
*>Letter>A	*>Letter>A	*>Letter>A	*>Letter>A	*>Letter>A	*>Letter>A	*>Letter>A
*>Label>Intro	*>Label>Intro	*>Label>Intro	*>Label>Intro	*>Label>Intro	*>Label>Intro	*>Label>Intro
1N	N	1r	.	.	0.302	newline
=2	=2	=2	=2	=2	=2	=2
1AM	A:1	4r	.	.	2.119	.
.	.	8r	.	.	.	.
.	.	8E	Got	.	.	.
.	.	8r	.	.	.	.
.	.	8E	my-	.	.	.
.	.	8F#	-self	.	.	.
.	.	8E	a	.	.	.
=3	=3	=3	=3	=3	=3	=3
*>Letter>B	*>Letter>B	*>Letter>B	*>Letter>B	*>Letter>B	*>Letter>B	*>Letter>B
*>Label>Chorus	*>Label>Chorus	*>Label>Chorus	*>Label>Chorus	*>Label>Chorus	*>Label>Chorus	*>Label>Chorus
.	.	8G#q	_	.	.	.
1AM	A:maj	4A	cry-	.	3.936	newline
.	.	4F#	-in',	.	.	.
.	.	4E	tal-	(A	.	.
.	.	4C#	-kin',	a)	.	.
=4	=4	=4	=4	=4	=4	=4
.	.	8G#q	_	.	.	.
1AM	A:maj	4A	slee-	.	5.826	.
.	.	4F#	-pin',	.	.	.
.	.	4E	wal-	(A	.	.
.	.	8C#	-kin'	a)	.	.
.	.	8BB	_	.	.	.
=5	=5	=5	=5	=5	=5	=5
1AM	A:maj	8A	li-	.	7.715	.
.	.	8G#q	_	.	.	.
.	.	4A	-ving	.	.	.
.	.	8A	doll	.	.	.
.	.	2AA	_	.	.	.
=6	=6	=6	=6	=6	=6	=6
1AM	A:maj	4r	.	.	9.605	.
.	.	8r	.	.	.	.
.	.	8E	Got	.	.	.
.	.	8r	.	.	.	.
.	.	8E	to	.	.	.
.	.	8F#	do	.	.	.
.	.	8E	my	.	.	.
=7	=7	=7	=7	=7	=7	=7
.	.	8G#q	_	.	.	.
1AM	A:maj	4A	best	.	11.494	newline
.	.	8F#	to	.	.	.
.	.	[8E	please	(B	.	.
.	.	4E]	_	.	.	.
.	.	4C#	her,	b)	.	.
=8	=8	=8	=8	=8	=8	=8
1AM	A:maj	4A	just	.	13.384	.
.	.	4F#	cuz	.	.	.
.	.	4E	she's	(B	.	.
.	.	8E	a	b)	.	.
.	.	8C#	_	.	.	.
=9	=9	=9	=9	=9	=9	=9
1BMm	B:7	8B	li-	.	15.274	.
.	.	8A#q	_	.	.	.
.	.	4B	-ving	.	.	.
.	.	8B	doll	.	.	.
.	.	2BB	_	.	.	.
=10	=10	=10	=10	=10	=10	=10
1EMm	E:7	4r	.	.	17.164	.
.	.	8r	.	.	.	.
.	.	[8E	Got	.	.	.
.	.	8E]	_	.	.	.
.	.	8E	a	.	.	.
.	.	8F#	ro-	.	.	.
.	.	8E	-vin'	.	.	.
=11	=11	=11	=11	=11	=11	=11
.	.	8G#q	_	.	.	.
1AM	A:maj	4A	eye	C	19.054	newline
.	.	4F#	and	.	.	.
.	.	8E	that	.	.	.
.	.	4C#	is	.	.	.
.	.	8G#	why	C	.	.
=12	=12	=12	=12	=12	=12	=12
1AM	A:maj	4A	_	.	20.959	.
.	.	4F#	she	.	.	.
.	.	8E	sa-	.	.	.
.	.	4C#	-tis-	.	.	.
.	.	8Aq	_	.	.	.
.	.	[8c	-fies	C	.	.
=13	=13	=13	=13	=13	=13	=13
1F#Mm	F#:7	4c]	_	.	22.864	.
.	.	8cq	_	.	.	.
.	.	4c#	my	.	.	.
.	.	2F#	soul	D	.	.
=14	=14	=14	=14	=14	=14	=14
1F#Mm	F#:7	4r	.	.	24.768	.
.	.	8r	.	.	.	.
.	.	16F#Q	_	.	.	.
.	.	8E	Got	.	.	.
.	.	8r	.	.	.	.
.	.	8E	the	.	.	.
.	.	8F#	one	.	.	.
.	.	8E	and	.	.	.
=15	=15	=15	=15	=15	=15	=15
.	.	8G#q	_	.	.	.
1AM	A:maj	4A	on-	.	26.673	newline
.	.	4F#	-ly	.	.	.
.	.	8C#q	_	.	.	.
.	.	4E	wal-	.	.	.
.	.	4BB	-kin',	.	.	.
=16	=16	=16	=16	=16	=16	=16
1EM	E:maj	4AA	tal-	.	28.534	.
.	.	4EE	-kin'	.	.	.
.	.	8r	.	.	.	.
.	.	8AA	li-	.	.	.
.	.	8AA	-ving	.	.	.
.	.	[8AA	doll	D	.	.
=17	=17	=17	=17	=17	=17	=17
1AM	A:maj	4AA]	_	.	30.396	.
.	.	4r	.	.	.	.
.	.	2r	.	.	.	.
=18	=18	=18	=18	=18	=18	=18
4AM	A:maj	8r	.	.	32.257	.
.	.	8AA	Well,	.	.	.
2.N	N	8AA	take	.	32.722	.
.	.	8AA	a	.	.	.
.	.	8C#	look	.	.	.
.	.	8C#	at	.	.	.
.	.	4E	her	.	.	.
=19	=19	=19	=19	=19	=19	=19
*>Letter>C	*>Letter>C	*>Letter>C	*>Letter>C	*>Letter>C	*>Letter>C	*>Letter>C
*>Label>Bridge	*>Label>Bridge	*>Label>Bridge	*>Label>Bridge	*>Label>Bridge	*>Label>Bridge	*>Label>Bridge
1DM	D:maj	4F#	hair	.	34.118	newline
.	.	4r	.	.	.	.
.	.	8r	.	.	.	.
.	.	4A	it's	.	.	.
.	.	[8A	real,	E	.	.
=20	=20	=20	=20	=20	=20	=20
1DM	D:maj	8A]	_	.	36.012	.
.	.	8A	and	.	.	.
.	.	8~AA	if	.	.	.
.	.	8AA	you	.	.	.
.	.	4D	don't	.	.	.
.	.	8F#	be-	.	.	.
.	.	8G#q	_	.	.	.
.	.	[8A	-lieve	.	.	.
=21	=21	=21	=21	=21	=21	=21
1AM	A:maj	8A]	_	.	37.906	.
.	.	8F#	what	.	.	.
.	.	8E	I	.	.	.
.	.	[8A	say,	.	.	.
.	.	8A]	_	.	.	.
.	.	8G#q	_	.	.	.
.	.	4A	just	.	.	.
.	.	8F#	feel	E	.	.
=22	=22	=22	=22	=22	=22	=22
1AM	A:maj	4E	_	.	39.8	.
.	.	8AA	Gon-	.	.	.
.	.	8AA	-na	.	.	.
.	.	8C#	lock	.	.	.
.	.	4E	her	.	.	.
.	.	[8F#	up	.	.	.
=23	=23	=23	=23	=23	=23	=23
1DM	D:maj	8F#]	_	.	41.694	newline
.	.	8A	in	.	.	.
.	.	8F#	a	.	.	.
.	.	[8A	trunk	F	.	.
.	.	4A]	_	.	.	.
.	.	8r	.	.	.	.
.	.	8F#	so	.	.	.
=24	=24	=24	=24	=24	=24	=24
1DM	D:maj	8A	no	.	43.525	.
.	.	4F#	big	.	.	.
.	.	[8A	hunk	F	.	.
.	.	8A]	_	.	.	.
.	.	8A	can	.	.	.
.	.	4F#	_	.	.	.
=25	=25	=25	=25	=25	=25	=25
.	.	16AQ	_	.	.	.
.	.	16BQ	_	.	.	.
4EM	E:maj	8c#	steal	E	45.356	.
.	.	8B	her	.	.	.
2.N	N	8A	a-	.	45.813	.
.	.	8E#	-way	.	.	.
.	.	4F#	_	.	.	.
.	.	4D	from	.	.	.
=26	=26	=26	=26	=26	=26	=26
.	.	8Dq	_	.	.	.
1N	N	4BB	me	.	47.187	.
.	.	8r	.	.	.	.
.	.	8E	Got	.	.	.
.	.	8r	.	.	.	.
.	.	8E	my-	.	.	.
.	.	8F#	-self	.	.	.
.	.	8E	a	.	.	.
=27	=27	=27	=27	=27	=27	=27
*>Letter>B	*>Letter>B	*>Letter>B	*>Letter>B	*>Letter>B	*>Letter>B	*>Letter>B
*>Label>Chorus	*>Label>Chorus	*>Label>Chorus	*>Label>Chorus	*>Label>Chorus	*>Label>Chorus	*>Label>Chorus
.	.	8G#q	_	.	.	.
1AM	A:maj	4A	cry-	.	49.017	newline
.	.	4F#	-in',	.	.	.
.	.	4E	tal-	(A	.	.
.	.	4C#	-kin',	a)	.	.
=28	=28	=28	=28	=28	=28	=28
.	.	8G#q	_	.	.	.
1AM	A:maj	4A	slee-	.	50.91	.
.	.	4F#	-pin',	.	.	.
.	.	4E	wal-	(A	.	.
.	.	4C#	-kin'	a)	.	.
=29	=29	=29	=29	=29	=29	=29
1AM	A:maj	8A	li-	.	52.803	.
.	.	8G#q	_	.	.	.
.	.	4A	-ving	.	.	.
.	.	8A	doll	.	.	.
.	.	2AA	_	.	.	.
=30	=30	=30	=30	=30	=30	=30
1AM	A:maj	4r	.	.	54.696	.
.	.	8r	.	.	.	.
.	.	8E	Got	.	.	.
.	.	8r	.	.	.	.
.	.	8E	to	.	.	.
.	.	8F#	do	.	.	.
.	.	8E	my	.	.	.
=31	=31	=31	=31	=31	=31	=31
.	.	8G#q	_	.	.	.
1AM	A:maj	4A	best	.	56.589	newline
.	.	8F#	to	.	.	.
.	.	16EQ	_	.	.	.
.	.	16F#Q	_	.	.	.
.	.	[8E	please	(B	.	.
.	.	4E]	_	.	.	.
.	.	4C#	her,	b)	.	.
=32	=32	=32	=32	=32	=32	=32
.	.	8G#q	_	.	.	.
1AM	A:maj	4A	just	.	58.494	.
.	.	4F#	cuz	.	.	.
.	.	4E	she's	(B	.	.
.	.	8E	a	b)	.	.
.	.	8C#	_	.	.	.
=33	=33	=33	=33	=33	=33	=33
1BMm	B:7	8B	li-	.	60.4	.
.	.	8A#q	_	.	.	.
.	.	4B	-ving	.	.	.
.	.	8B	doll	.	.	.
.	.	2BB	_	.	.	.
=34	=34	=34	=34	=34	=34	=34
1EMm	E:7	4r	.	.	62.306	.
.	.	8r	.	.	.	.
.	.	[8E	Got	.	.	.
.	.	8E]	_	.	.	.
.	.	8E	a	.	.	.
.	.	8F#	ro-	.	.	.
.	.	8E	-vin'	.	.	.
=35	=35	=35	=35	=35	=35	=35
1AM	A:maj	8G#	eye	C	64.212	newline
.	.	8A	_	.	.	.
.	.	4F#	and	.	.	.
.	.	8E	that	.	.	.
.	.	4C#	is	.	.	.
.	.	8G#	why	C	.	.
=36	=36	=36	=36	=36	=36	=36
1AM	A:maj	4A	_	.	66.096	.
.	.	4F#	she	.	.	.
.	.	8E	sa-	.	.	.
.	.	4C#	-tis-	C	.	.
.	.	8Aq	_	.	.	.
.	.	[8c	-fies	.	.	.
=37	=37	=37	=37	=37	=37	=37
1F#Mm	F#:7	4c]	_	.	67.98	.
.	.	8cq	_	.	.	.
.	.	4c#	my	.	.	.
.	.	2F#	soul	D	.	.
=38	=38	=38	=38	=38	=38	=38
1F#Mm	F#:7	4r	.	.	69.864	.
.	.	8r	.	.	.	.
.	.	16F#Q	_	.	.	.
.	.	8E	Got	.	.	.
.	.	8r	.	.	.	.
.	.	8E	the	.	.	.
.	.	8F#	one	.	.	.
.	.	8E	and	.	.	.
=39	=39	=39	=39	=39	=39	=39
.	.	8G#q	_	.	.	.
1AM	A:maj	4A	on-	.	71.748	newline
.	.	4F#	-ly	.	.	.
.	.	8C#q	_	.	.	.
.	.	4E	wal-	(A	.	.
.	.	4BB	-kin',	a)	.	.
=40	=40	=40	=40	=40	=40	=40
1EM	E:maj	4AA	tal-	(A	73.626	.
.	.	4EE	-kin'	a)	.	.
.	.	8r	.	.	.	.
.	.	8A	li-	.	.	.
.	.	8A	-ving	.	.	.
.	.	[8A	doll	D	.	.
=41	=41	=41	=41	=41	=41	=41
1AM	A:maj	1A]	_	.	75.504	.
=42	=42	=42	=42	=42	=42	=42
4AM	A:maj	8r	.	.	77.381	.
.	.	8c#	Mmm	.	.	.
2.N	N	4B	_	.	77.851	.
.	.	[2A	_	.	.	.
=43	=43	=43	=43	=43	=43	=43
*>Letter>B	*>Letter>B	*>Letter>B	*>Letter>B	*>Letter>B	*>Letter>B	*>Letter>B
*>Label>Solo	*>Label>Solo	*>Label>Solo	*>Label>Solo	*>Label>Solo	*>Label>Solo	*>Label>Solo
1AM	A:maj	2A]	_	.	79.259	newline
.	.	2r	.	.	.	.
=44	=44	=44	=44	=44	=44	=44
1AM	A:maj	1r	.	.	81.157	.
=45	=45	=45	=45	=45	=45	=45
1AM	A:maj	1r	.	.	83.055	.
=46	=46	=46	=46	=46	=46	=46
1AM	A:maj	1r	.	.	84.953	.
=47	=47	=47	=47	=47	=47	=47
1AM	A:maj	1r	.	.	86.851	newline
=48	=48	=48	=48	=48	=48	=48
1AM	A:maj	1r	.	.	88.723	.
=49	=49	=49	=49	=49	=49	=49
1BMm	B:7	1r	.	.	90.595	.
=50	=50	=50	=50	=50	=50	=50
1EMm	E:7	1r	.	.	92.467	.
=51	=51	=51	=51	=51	=51	=51
1AM	A:maj	1r	.	.	94.339	newline
=52	=52	=52	=52	=52	=52	=52
1AM	A:maj	1r	.	.	96.221	.
=53	=53	=53	=53	=53	=53	=53
1F#Mm	F#:7	1r	.	.	98.103	.
=54	=54	=54	=54	=54	=54	=54
1F#Mm	F#:7	1r	.	.	99.985	.
=55	=55	=55	=55	=55	=55	=55
1AM	A:maj	1r	.	.	101.867	newline
=56	=56	=56	=56	=56	=56	=56
1EM	E:maj	1r	.	.	103.755	.
=57	=57	=57	=57	=57	=57	=57
1AM	A:maj	1r	.	.	105.643	.
=58	=58	=58	=58	=58	=58	=58
4AM	A:maj	8r	.	.	107.531	.
.	.	8AA	Well,	.	.	.
2.N	N	8AA	take	.	108.003	.
.	.	8AA	a	.	.	.
.	.	8C#	look	.	.	.
.	.	8C#	at	.	.	.
.	.	4E	her	.	.	.
=59	=59	=59	=59	=59	=59	=59
*>Letter>C	*>Letter>C	*>Letter>C	*>Letter>C	*>Letter>C	*>Letter>C	*>Letter>C
*>Label>Bridge	*>Label>Bridge	*>Label>Bridge	*>Label>Bridge	*>Label>Bridge	*>Label>Bridge	*>Label>Bridge
1DM	D:maj	4F#	hair	.	109.419	newline
.	.	4r	.	.	.	.
.	.	8r	.	.	.	.
.	.	4A	it's	.	.	.
.	.	[8A	real,	E	.	.
=60	=60	=60	=60	=60	=60	=60
1DM	D:maj	8A]	_	.	111.318	.
.	.	8A	and	.	.	.
.	.	8~AA	if	.	.	.
.	.	8AA	you	.	.	.
.	.	4D	don't	.	.	.
.	.	8F#	be-	.	.	.
.	.	8G#q	_	.	.	.
.	.	[8A	-lieve	.	.	.
=61	=61	=61	=61	=61	=61	=61
1AM	A:maj	8A]	_	.	113.217	.
.	.	8F#	what	.	.	.
.	.	8E	I	.	.	.
.	.	8G#q	_	.	.	.
.	.	[8A	say,	.	.	.
.	.	8A]	_	.	.	.
.	.	8G#q	_	.	.	.
.	.	4A	just	.	.	.
.	.	16F#	feel	E	.	.
.	.	16E	_	.	.	.
=62	=62	=62	=62	=62	=62	=62
1AM	A:maj	4r	.	.	115.116	.
.	.	8AA	Gon-	.	.	.
.	.	8AA	-na	.	.	.
.	.	8C#	lock	.	.	.
.	.	4E	her	.	.	.
.	.	[8F#	up	.	.	.
=63	=63	=63	=63	=63	=63	=63
1DM	D:maj	8F#]	_	.	117.015	newline
.	.	8A	in	.	.	.
.	.	8F#	a	.	.	.
.	.	[8A	trunk	F	.	.
.	.	4A]	_	.	.	.
.	.	8r	.	.	.	.
.	.	8F#	so	.	.	.
=64	=64	=64	=64	=64	=64	=64
1DM	D:maj	8A	no	.	118.866	.
.	.	8Aq	_	.	.	.
.	.	4F#	big	.	.	.
.	.	[8A	hunk	F	.	.
.	.	8A]	_	.	.	.
.	.	8A	can	.	.	.
.	.	4F#	_	.	.	.
=65	=65	=65	=65	=65	=65	=65
.	.	16AQ	_	.	.	.
.	.	16BQ	_	.	.	.
4EM	E:maj	8c#	steal	E	120.717	.
.	.	8B	her	.	.	.
2.N	N	8A	a-	.	121.18	.
.	.	8E#	-way	.	.	.
.	.	4F#	_	.	.	.
.	.	4D	from	.	.	.
=66	=66	=66	=66	=66	=66	=66
.	.	8Dq	_	.	.	.
1N	N	4BB	me	.	122.568	.
.	.	8r	.	.	.	.
.	.	8E	Got	.	.	.
.	.	8r	.	.	.	.
.	.	8E	my-	.	.	.
.	.	8F#	-self	.	.	.
.	.	8E	a	.	.	.
=67	=67	=67	=67	=67	=67	=67
*>Letter>B2	*>Letter>B2	*>Letter>B2	*>Letter>B2	*>Letter>B2	*>Letter>B2	*>Letter>B2
*>Label>Chorus	*>Label>Chorus	*>Label>Chorus	*>Label>Chorus	*>Label>Chorus	*>Label>Chorus	*>Label>Chorus
.	.	8G#q	_	.	.	.
1AM	A:maj	4A	cry-	.	124.419	newline
.	.	16F#Q	_	.	.	.
.	.	16AQ	_	.	.	.
.	.	8F#	-in',	a	.	.
.	.	[8E	_	.	.	.
.	.	4E]	tal-	(A	.	.
.	.	4C#	-kin',	a)	.	.
=68	=68	=68	=68	=68	=68	=68
.	.	8G#q	_	.	.	.
1AM	A:maj	4A	slee-	.	126.323	.
.	.	8F#	-pin',	.	.	.
.	.	8C#	_	.	.	.
.	.	4E	wal-	(A	.	.
.	.	8C#	-kin'	a)	.	.
.	.	8BB	_	.	.	.
=69	=69	=69	=69	=69	=69	=69
1AM	A:maj	8A	li-	.	128.228	.
.	.	8G#q	_	.	.	.
.	.	4A	-ving	.	.	.
.	.	8A	doll	.	.	.
.	.	2AA	_	.	.	.
=70	=70	=70	=70	=70	=70	=70
1AM	A:maj	4r	.	.	130.132	.
.	.	8r	.	.	.	.
.	.	8E	Got	.	.	.
.	.	8r	.	.	.	.
.	.	8E	to	.	.	.
.	.	8F#	do	.	.	.
.	.	8E	my	.	.	.
=71	=71	=71	=71	=71	=71	=71
.	.	8G#q	_	.	.	.
1AM	A:maj	4A	best	.	132.036	newline
.	.	16F#Q	_	.	.	.
.	.	16AQ	_	.	.	.
.	.	8F#	to	.	.	.
.	.	[8E	please	(B	.	.
.	.	4E]	_	.	.	.
.	.	4C#	her,	b)	.	.
=72	=72	=72	=72	=72	=72	=72
.	.	8G#q	_	.	.	.
1AM	A:maj	4A	just	.	133.932	.
.	.	4F#	cuz	.	.	.
.	.	4E	she's	(B	.	.
.	.	8E	a	b)	.	.
.	.	8C#	_	.	.	.
=73	=73	=73	=73	=73	=73	=73
1BMm	B:7	8B	li-	.	135.829	.
.	.	8A#q	_	.	.	.
.	.	4B	-ving	.	.	.
.	.	8B	doll	.	.	.
.	.	2BB	_	.	.	.
=74	=74	=74	=74	=74	=74	=74
1EMm	E:7	4r	.	.	137.725	.
.	.	8r	.	.	.	.
.	.	[8E	Got	.	.	.
.	.	8E]	_	.	.	.
.	.	8E	a	.	.	.
.	.	8F#	ro-	.	.	.
.	.	8E	-vin'	.	.	.
=75	=75	=75	=75	=75	=75	=75
1AM	A:maj	8G#	eye	C	139.621	newline
.	.	8A	_	.	.	.
.	.	4F#	and	.	.	.
.	.	8E	that	.	.	.
.	.	4C#	is	.	.	.
.	.	8G#	why	C	.	.
=76	=76	=76	=76	=76	=76	=76
1AM	A:maj	4A	_	.	141.5	.
.	.	4F#	she	.	.	.
.	.	8E	sa-	.	.	.
.	.	4C#	-tis-	.	.	.
.	.	8Aq	_	.	.	.
.	.	[8c	-fies	C	.	.
=77	=77	=77	=77	=77	=77	=77
1F#Mm	F#:7	4c]	_	.	143.379	.
.	.	8cq	_	.	.	.
.	.	4c#	my	.	.	.
.	.	[2F#	soul!	D	.	.
=78	=78	=78	=78	=78	=78	=78
1F#Mm	F#:7	4F#]	_	.	145.259	.
.	.	8r	.	.	.	.
.	.	16F#Q	_	.	.	.
.	.	8E	Got	.	.	.
.	.	8r	.	.	.	.
.	.	8E	the	.	.	.
.	.	8F#	one	.	.	.
.	.	8E	and	.	.	.
=79	=79	=79	=79	=79	=79	=79
.	.	8G#q	_	.	.	.
1AM	A:maj	4A	on-	.	147.138	newline
.	.	4F#	-ly	.	.	.
.	.	8C#q	_	.	.	.
.	.	4E	wal-	(A	.	.
.	.	4BB	-kin',	a)	.	.
=80	=80	=80	=80	=80	=80	=80
4EM	E:maj	4AA	tal-	(A	149.034	.
2.N	N	4AA	-kin'	a)	149.508	.
.	.	8r	.	.	.	.
.	.	8B	li-	.	.	.
.	.	8A	-ving	.	.	.
.	.	[8c	doll	.	.	.
=81	=81	=81	=81	=81	=81	=81
1N	N	8c]	_	.	150.93	.
.	.	8B	_	.	.	.
.	.	[4A	_	.	.	.
.	.	2A_	_	.	.	.
=82	=82	=82	=82	=82	=82	=82
1AM	A:maj6(9)	2.A]	_	.	152.826	.
.	.	4r	.	.	.	.
1r;	1r	r;	.	.	155.907	.
1r;	1r	r;	.	.	158.833	.
*-	*-	*-	*-	*-	*-	*-
!!!BillboardChartDate: 1959/10/12
!!!BillboardPeak: 30
!!!BillboardWeeksOnChart: 13
!!!COC: Cliff Richard
!!!ENC: Nathaniel Condit-Schultz
!!!EST: Awating manual error checking and editing.
!!!OTL: Living Doll
!!!RDF**chordsym: original McGill chord annotation + (implied pitch class set, with bass pitch in first position)
!!!RDF**harmony: **recip + pitch class of root + harmonic quality
!!!RDF**leadinstrument: original McGill primary instrumentation annotation
!!!RDF**phrase: newline = linebreak in original McGill transcription
!!!RDF**timestamp: McGill audio timestamp in seconds
!!!RDT: 2017/01/12/
!!!SampleActualRank: 46
!!!SampleID#: 0740
!!!SampleTargetRank: 48
!!!MBID: e82fe230-621d-488a-ab27-f8e2973bbff1